X:0209
T:Delvine Side
P:Delvine Side
C:McGlashan's Collection
R:Strathspey (8x32)
B:RSCDS 2-9
Z:Anselm Lingnau <anselm@strathspey.org>
M:C
L:1/8
K:Em
"Em"E>e d/^c/B/A/ d<E B>A|B>e d/^c/B/A/ "D"d>D A<F|\
        "Em"E>e d/^c/B/A/ d<E E>g|"D"f<a "A7"e>f "Bm7"d>B A<F|
"Em"E>e d/^c/B/A/ d<E B>A|E>e d/^c/B/A/ "D"d>D A<F|\
        "Em"E>e d/^c/B/A/ d>E E>g|"D"f<a "A7"e>f "D"d>B "Bm"A<F||
"Em"B<EB>A B>E B<e|B<EB>A "D"d>B A<F|\
	"Em"B<EB>A B>E B<g|"D"f<a"A7"e>f "Bm7"d>B A<F|
"Em"B<EB>A B>E B<e|B<EB>A "D"d>B A<F|"C"E>F"G"G>A "Em"B>A B<g\
        |"D"f<a"A7"e>f "D"d>F "B7"B/A/G/F/|]
